X:1
T: Tarry a While
C:
R:Jig
Q:180
K:Bb
M:6/8
L:1/16
|:F2|B3cB2 F4D2|F4F2 F4d2|e3fe2 d2c2B2|d6c4F2|
B3cB2 F4D2|F4F2 F2d2e2|f2d2B2 c4d2|[B6D6] [B4D4]e2|
d4f2 f2e2d2|e4g2 c2d2e2|d3cB2 B2A2B2|d3cA2 F4e2|
d4f2 f2e2d2|e2f2g2 c2d2e2|d2c2B2 c2B2A2|[B6D6] [B4D4]:|
